source/img/logo.svg

<svg xmlns="http://www.w3.org/2000/svg" style="isolation:isolate" width="500" height="200"><defs><clipPath id="a"><path d="M0 0h500v200H0z"/></clipPath></defs><g clip-path="url(#a)"><path d="M305.356 98.635h-6.348V35.154h6.348v25.505q.258-.081 1.888-1.012t2.016-1.093q.386-.162 1.844-.931 1.459-.769 2.059-.931.601-.162 1.974-.648 1.372-.486 2.273-.648.901-.162 2.188-.324 1.287-.162 2.573-.162 6.521 0 10.295 4.049 3.775 4.048 3.775 9.716v29.96h-6.348v-29.96q0-3.886-2.102-5.829-2.102-1.944-5.62-1.944-3.26 0-6.176.648-2.917.648-4.676 1.336-1.759.688-5.963 2.632v33.117zm43.754-49.959v-4.373q0-2.024 2.059-2.024h4.289q1.973 0 1.973 2.024v4.373q0 1.862-1.973 1.862h-4.289q-2.059 0-2.059-1.862zm7.206 49.959h-6.348V55.639h6.348v42.996zm21.19 0h-6.348V55.639h4.461l1.887 5.02q.258-.081 1.888-1.012t2.016-1.093q.386-.162 1.844-.931 1.459-.769 2.06-.931.6-.162 1.973-.648 1.372-.486 2.273-.648.901-.162 2.188-.324 1.287-.162 2.573-.162 6.521 0 10.295 4.049 3.775 4.048 3.775 9.716v29.96h-6.348v-29.96q0-3.805-2.145-5.789-2.145-1.984-5.577-1.984-3.26 0-6.176.648-2.917.648-4.676 1.336-1.759.688-5.963 2.632v33.117z" fill="#FFF"/><path d="M222.783 38.635v-8.016q0-12.267 6.692-16.943Q236.166 9 248.263 9q8.75 0 32.171 2.915v7.287l-32.171-1.214q-1.545-.122-2.703-.122-6.563 0-9.909 2.612-3.345 2.611-3.345 10.141v8.016q0 7.531 3.152 9.717 3.153 2.186 9.974 2.186h18.273q20.075 0 20.075 20.89v8.259q0 6.195-2.188 10.324-2.187 4.13-6.176 6.134-3.99 2.004-8.108 2.733-4.118.728-9.523.728-4.504 0-15.892-1.093-11.389-1.093-16.279-1.943v-7.288q14.155 1.336 32.171 1.336 16.472 0 16.472-10.931v-8.259q0-5.708-2.316-8.805-2.316-3.097-8.236-3.097h-18.016q-7.335 0-12.161-1.701-4.826-1.7-7.013-4.979-2.188-3.28-2.96-6.498-.772-3.219-.772-7.713z" fill="#FFAD00"/><path d="M116.788 85.598V55.639h6.349v29.959q0 3.806 2.145 5.79 2.144 1.984 5.576 1.984 3.26 0 6.177-.648t4.676-1.336q1.758-.689 5.962-2.632V55.639h6.349v42.996h-4.462l-1.887-5.021q-.257.081-1.887 1.013-1.63.931-2.016 1.093-.387.162-1.845.931t-2.059.931q-.6.162-1.973.648-1.373.486-2.274.648-.9.161-2.187.323t-2.574.162q-6.52 0-10.295-4.048-3.775-4.049-3.775-9.717zm58.166 13.037h-6.348V55.639h4.461l1.887 5.02q.258-.081 1.888-1.012t2.016-1.093q.386-.162 1.844-.931 1.459-.769 2.059-.931.601-.162 1.974-.648 1.372-.486 2.273-.648.901-.162 2.188-.324 1.287-.162 2.573-.162 6.521 0 10.295 4.049 3.775 4.048 3.775 9.716v29.96h-6.348v-29.96q0-3.805-2.145-5.789-2.145-1.984-5.577-1.984-3.26 0-6.176.648-2.917.648-4.676 1.336-1.759.688-5.963 2.632v33.117z" fill="#FFF"/><path d="M41.421 38.635v-8.016q0-12.267 6.692-16.943Q54.805 9 66.901 9q8.751 0 32.172 2.915v7.287l-32.172-1.214q-1.544-.122-2.702-.122-6.563 0-9.909 2.612-3.346 2.611-3.346 10.141v8.016q0 7.531 3.153 9.717 3.153 2.186 9.973 2.186h18.273q20.075 0 20.075 20.89v8.259q0 6.195-2.187 10.324-2.188 4.13-6.177 6.134-3.989 2.004-8.107 2.733-4.118.728-9.523.728-4.504 0-15.893-1.093-11.389-1.093-16.279-1.943v-7.288q14.156 1.336 32.172 1.336 16.472 0 16.472-10.931v-8.259q0-5.708-2.317-8.805-2.316-3.097-8.236-3.097H64.327q-7.335 0-12.161-1.701-4.825-1.7-7.013-4.979-2.188-3.28-2.96-6.498-.772-3.219-.772-7.713z" fill="#FFAD00"/><path d="M41.421 116.352v-1.798h417.158v3.596H41.421v-1.798z" fill="#FFF"/><path d="M80.684 158.63q1.581.491 2.88 1.405 1.299.913 2.212 2.335.914 1.422 1.405 3.354.492 1.931.492 4.425v2.528q0 12.222-12.222 12.222H47.883v-50.361h26.129q12.221 0 12.221 12.257v.913q0 4.249-1.352 6.936-1.352 2.686-4.197 3.986zm-5.443 4.319H54.942v14.891h20.299q2.844 0 4.109-1.335 1.264-1.334 1.264-4.179v-3.898q0-2.88-1.264-4.179-1.265-1.3-4.109-1.3zm-1.44-21.352H54.942v14.329h19.351q2.598-.106 3.74-1.423 1.141-1.317 1.141-4.056v-3.301q0-2.88-1.264-4.214-1.264-1.335-4.109-1.335zm30.048 36.102v-43.161h7.199v43.161h28.763v-43.161h7.199v43.161q0 1.475-.562 2.792-.562 1.317-1.545 2.301-.983.983-2.3 1.545-1.317.562-2.792.562h-28.763q-1.475 0-2.792-.562-1.317-.562-2.3-1.545-.983-.984-1.545-2.301-.562-1.317-.562-2.792zm61.479-43.161h7.199v50.361h-7.199v-50.361zm25.518 0h7.199v43.161h25.883v7.2h-33.082v-50.361zm54.315 43.161h18.402q5.022 0 7.726-2.704 2.704-2.704 2.704-7.726v-15.101q0-2.458-.702-4.39-.702-1.932-2.055-3.284-1.352-1.352-3.283-2.054-1.932-.702-4.39-.702h-18.402v35.961zm18.402 7.2h-25.602v-50.361h25.602q4.039 0 7.287 1.247 3.249 1.247 5.549 3.547 2.3 2.3 3.547 5.566 1.247 3.266 1.247 7.27v15.101q0 4.004-1.247 7.27t-3.547 5.566q-2.3 2.3-5.549 3.547-3.248 1.247-7.287 1.247zm34.543 0v-50.361h36.699v7.2h-29.5v14.398h25.181v7.2h-25.181v14.363h29.5v7.2h-36.699zm92.665-38.104v5.724q0 10.536-8.99 12.011l9.482 20.369h-7.972l-9.342-20.123h-15.768v20.123h-7.2v-50.361h27.569q12.221 0 12.221 12.257zm-32.59-5.057v15.838h19.982q2.88 0 4.144-1.264 1.265-1.264 1.265-4.144v-5.022q0-2.88-1.265-4.144-1.264-1.264-4.144-1.264h-19.982zm81.637 21.598h-24.443q-1.475 0-2.792-.58-1.317-.579-2.3-1.545-.983-.966-1.545-2.283-.562-1.317-.562-2.792v-14.398q0-1.475.562-2.792.562-1.317 1.545-2.283.983-.966 2.3-1.545 1.317-.58 2.792-.58h24.443q1.475 0 2.792.58 1.317.579 2.301 1.545.983.966 1.545 2.283.562 1.317.562 2.792v6.497h-7.2v-6.497h-24.443v14.398h24.443q1.475 0 2.792.562 1.317.562 2.301 1.545.983.984 1.545 2.301.562 1.317.562 2.792v14.363q0 1.475-.562 2.792-.562 1.317-1.545 2.301-.984.983-2.301 1.545-1.317.562-2.792.562h-25.145q-1.475 0-2.792-.562-1.317-.562-2.3-1.545-.984-.984-1.545-2.301-.562-1.317-.562-2.792v-6.461h7.199v6.461h25.145v-14.363zM421.26 76.934q0-7.125 1.029-11.457 1.03-4.332 3.732-6.559 2.703-2.226 6.006-2.914 3.302-.689 9.136-.689 4.719 0 7.378.405 2.66.405 5.233 1.862 2.574 1.458 3.689 4.616 1.116 3.158 1.116 8.34 0 9.878-11.754 9.878h-19.217q0 7.53 1.802 10.081 1.802 2.551 6.863 2.551h3.603q12.011 0 17.845-.81v4.534q-8.493 2.267-21.448 2.267-8.665 0-11.839-4.696-3.174-4.696-3.174-17.409zm6.348-2.429h19.217q5.405 0 5.405-3.967 0-6.235-1.93-7.733-1.93-1.498-9.051-1.498-3.003 0-4.418.081-1.416.081-3.346.445l-2.745 1.174q-.815.81-1.716 2.268-.901 1.457-1.158 3.724-.258 2.267-.258 5.506z" fill-rule="evenodd" fill="#FFF"/></g></svg>

<?xml version="1.0" standalone="no"?><!-- Generator: Gravit.io --><svg xmlns="http://www.w3.org/2000/svg" xmlns:xlink="http://www.w3.org/1999/xlink" style="isolation:isolate" viewBox="0 0 500 200" width="500" height="200"><defs><clipPath id="_clipPath_f3YASK8J2nggFzEqqKTDGKORiLJZ3vlB"><rect width="500" height="200"/></clipPath></defs><g clip-path="url(#_clipPath_f3YASK8J2nggFzEqqKTDGKORiLJZ3vlB)"><g><path d=" M 305.356 98.635 L 299.008 98.635 L 299.008 35.154 L 305.356 35.154 L 305.356 60.659 L 305.356 60.659 Q 305.614 60.578 307.244 59.647 L 307.244 59.647 L 307.244 59.647 Q 308.874 58.716 309.26 58.554 L 309.26 58.554 L 309.26 58.554 Q 309.646 58.392 311.104 57.623 L 311.104 57.623 L 311.104 57.623 Q 312.563 56.854 313.163 56.692 L 313.163 56.692 L 313.163 56.692 Q 313.764 56.53 315.137 56.044 L 315.137 56.044 L 315.137 56.044 Q 316.509 55.558 317.41 55.396 L 317.41 55.396 L 317.41 55.396 Q 318.311 55.234 319.598 55.072 L 319.598 55.072 L 319.598 55.072 Q 320.885 54.91 322.171 54.91 L 322.171 54.91 L 322.171 54.91 Q 328.692 54.91 332.466 58.959 L 332.466 58.959 L 332.466 58.959 Q 336.241 63.007 336.241 68.675 L 336.241 68.675 L 336.241 98.635 L 329.893 98.635 L 329.893 68.675 L 329.893 68.675 Q 329.893 64.789 327.791 62.846 L 327.791 62.846 L 327.791 62.846 Q 325.689 60.902 322.171 60.902 L 322.171 60.902 L 322.171 60.902 Q 318.911 60.902 315.995 61.55 L 315.995 61.55 L 315.995 61.55 Q 313.078 62.198 311.319 62.886 L 311.319 62.886 L 311.319 62.886 Q 309.56 63.574 305.356 65.518 L 305.356 65.518 L 305.356 98.635 Z " fill="rgb(255,255,255)"/><path d=" M 349.11 48.676 L 349.11 48.676 L 349.11 44.303 L 349.11 44.303 Q 349.11 42.279 351.169 42.279 L 351.169 42.279 L 355.458 42.279 L 355.458 42.279 Q 357.431 42.279 357.431 44.303 L 357.431 44.303 L 357.431 48.676 L 357.431 48.676 Q 357.431 50.538 355.458 50.538 L 355.458 50.538 L 351.169 50.538 L 351.169 50.538 Q 349.11 50.538 349.11 48.676 Z " fill="rgb(255,255,255)"/><path d=" M 356.316 98.635 L 349.968 98.635 L 349.968 55.639 L 356.316 55.639 L 356.316 98.635 Z " fill="rgb(255,255,255)"/><path d=" M 377.506 98.635 L 371.158 98.635 L 371.158 55.639 L 375.619 55.639 L 377.506 60.659 L 377.506 60.659 Q 377.764 60.578 379.394 59.647 L 379.394 59.647 L 379.394 59.647 Q 381.024 58.716 381.41 58.554 L 381.41 58.554 L 381.41 58.554 Q 381.796 58.392 383.254 57.623 L 383.254 57.623 L 383.254 57.623 Q 384.713 56.854 385.314 56.692 L 385.314 56.692 L 385.314 56.692 Q 385.914 56.53 387.287 56.044 L 387.287 56.044 L 387.287 56.044 Q 388.659 55.558 389.56 55.396 L 389.56 55.396 L 389.56 55.396 Q 390.461 55.234 391.748 55.072 L 391.748 55.072 L 391.748 55.072 Q 393.035 54.91 394.321 54.91 L 394.321 54.91 L 394.321 54.91 Q 400.842 54.91 404.616 58.959 L 404.616 58.959 L 404.616 58.959 Q 408.391 63.007 408.391 68.675 L 408.391 68.675 L 408.391 98.635 L 402.043 98.635 L 402.043 68.675 L 402.043 68.675 Q 402.043 64.87 399.898 62.886 L 399.898 62.886 L 399.898 62.886 Q 397.753 60.902 394.321 60.902 L 394.321 60.902 L 394.321 60.902 Q 391.061 60.902 388.145 61.55 L 388.145 61.55 L 388.145 61.55 Q 385.228 62.198 383.469 62.886 L 383.469 62.886 L 383.469 62.886 Q 381.71 63.574 377.506 65.518 L 377.506 65.518 L 377.506 98.635 Z " fill="rgb(255,255,255)"/><path d=" M 222.783 38.635 L 222.783 38.635 L 222.783 30.619 L 222.783 30.619 Q 222.783 18.352 229.475 13.676 L 229.475 13.676 L 229.475 13.676 Q 236.166 9 248.263 9 L 248.263 9 L 248.263 9 Q 257.013 9 280.434 11.915 L 280.434 11.915 L 280.434 19.202 L 248.263 17.988 L 248.263 17.988 Q 246.718 17.866 245.56 17.866 L 245.56 17.866 L 245.56 17.866 Q 238.997 17.866 235.651 20.478 L 235.651 20.478 L 235.651 20.478 Q 232.306 23.089 232.306 30.619 L 232.306 30.619 L 232.306 38.635 L 232.306 38.635 Q 232.306 46.166 235.458 48.352 L 235.458 48.352 L 235.458 48.352 Q 238.611 50.538 245.432 50.538 L 245.432 50.538 L 263.705 50.538 L 263.705 50.538 Q 283.78 50.538 283.78 71.428 L 283.78 71.428 L 283.78 79.687 L 283.78 79.687 Q 283.78 85.882 281.592 90.011 L 281.592 90.011 L 281.592 90.011 Q 279.405 94.141 275.416 96.145 L 275.416 96.145 L 275.416 96.145 Q 271.426 98.149 267.308 98.878 L 267.308 98.878 L 267.308 98.878 Q 263.19 99.606 257.785 99.606 L 257.785 99.606 L 257.785 99.606 Q 253.281 99.606 241.893 98.513 L 241.893 98.513 L 241.893 98.513 Q 230.504 97.42 225.614 96.57 L 225.614 96.57 L 225.614 89.282 L 225.614 89.282 Q 239.769 90.618 257.785 90.618 L 257.785 90.618 L 257.785 90.618 Q 274.257 90.618 274.257 79.687 L 274.257 79.687 L 274.257 71.428 L 274.257 71.428 Q 274.257 65.72 271.941 62.623 L 271.941 62.623 L 271.941 62.623 Q 269.625 59.526 263.705 59.526 L 263.705 59.526 L 245.689 59.526 L 245.689 59.526 Q 238.354 59.526 233.528 57.825 L 233.528 57.825 L 233.528 57.825 Q 228.702 56.125 226.515 52.846 L 226.515 52.846 L 226.515 52.846 Q 224.327 49.566 223.555 46.348 L 223.555 46.348 L 223.555 46.348 Q 222.783 43.129 222.783 38.635 Z " fill="rgb(255,173,0)"/><path d=" M 116.788 85.598 L 116.788 85.598 L 116.788 55.639 L 123.137 55.639 L 123.137 85.598 L 123.137 85.598 Q 123.137 89.404 125.282 91.388 L 125.282 91.388 L 125.282 91.388 Q 127.426 93.372 130.858 93.372 L 130.858 93.372 L 130.858 93.372 Q 134.118 93.372 137.035 92.724 L 137.035 92.724 L 137.035 92.724 Q 139.952 92.076 141.711 91.388 L 141.711 91.388 L 141.711 91.388 Q 143.469 90.699 147.673 88.756 L 147.673 88.756 L 147.673 55.639 L 154.022 55.639 L 154.022 98.635 L 149.56 98.635 L 147.673 93.614 L 147.673 93.614 Q 147.416 93.695 145.786 94.627 L 145.786 94.627 L 145.786 94.627 Q 144.156 95.558 143.77 95.72 L 143.77 95.72 L 143.77 95.72 Q 143.383 95.882 141.925 96.651 L 141.925 96.651 L 141.925 96.651 Q 140.467 97.42 139.866 97.582 L 139.866 97.582 L 139.866 97.582 Q 139.266 97.744 137.893 98.23 L 137.893 98.23 L 137.893 98.23 Q 136.52 98.716 135.619 98.878 L 135.619 98.878 L 135.619 98.878 Q 134.719 99.039 133.432 99.201 L 133.432 99.201 L 133.432 99.201 Q 132.145 99.363 130.858 99.363 L 130.858 99.363 L 130.858 99.363 Q 124.338 99.363 120.563 95.315 L 120.563 95.315 L 120.563 95.315 Q 116.788 91.266 116.788 85.598 Z " fill="rgb(255,255,255)"/><path d=" M 174.954 98.635 L 168.606 98.635 L 168.606 55.639 L 173.067 55.639 L 174.954 60.659 L 174.954 60.659 Q 175.212 60.578 176.842 59.647 L 176.842 59.647 L 176.842 59.647 Q 178.472 58.716 178.858 58.554 L 178.858 58.554 L 178.858 58.554 Q 179.244 58.392 180.702 57.623 L 180.702 57.623 L 180.702 57.623 Q 182.161 56.854 182.761 56.692 L 182.761 56.692 L 182.761 56.692 Q 183.362 56.53 184.735 56.044 L 184.735 56.044 L 184.735 56.044 Q 186.107 55.558 187.008 55.396 L 187.008 55.396 L 187.008 55.396 Q 187.909 55.234 189.196 55.072 L 189.196 55.072 L 189.196 55.072 Q 190.483 54.91 191.769 54.91 L 191.769 54.91 L 191.769 54.91 Q 198.29 54.91 202.064 58.959 L 202.064 58.959 L 202.064 58.959 Q 205.839 63.007 205.839 68.675 L 205.839 68.675 L 205.839 98.635 L 199.491 98.635 L 199.491 68.675 L 199.491 68.675 Q 199.491 64.87 197.346 62.886 L 197.346 62.886 L 197.346 62.886 Q 195.201 60.902 191.769 60.902 L 191.769 60.902 L 191.769 60.902 Q 188.509 60.902 185.593 61.55 L 185.593 61.55 L 185.593 61.55 Q 182.676 62.198 180.917 62.886 L 180.917 62.886 L 180.917 62.886 Q 179.158 63.574 174.954 65.518 L 174.954 65.518 L 174.954 98.635 Z " fill="rgb(255,255,255)"/><path d=" M 41.421 38.635 L 41.421 38.635 L 41.421 30.619 L 41.421 30.619 Q 41.421 18.352 48.113 13.676 L 48.113 13.676 L 48.113 13.676 Q 54.805 9 66.901 9 L 66.901 9 L 66.901 9 Q 75.652 9 99.073 11.915 L 99.073 11.915 L 99.073 19.202 L 66.901 17.988 L 66.901 17.988 Q 65.357 17.866 64.199 17.866 L 64.199 17.866 L 64.199 17.866 Q 57.636 17.866 54.29 20.478 L 54.29 20.478 L 54.29 20.478 Q 50.944 23.089 50.944 30.619 L 50.944 30.619 L 50.944 38.635 L 50.944 38.635 Q 50.944 46.166 54.097 48.352 L 54.097 48.352 L 54.097 48.352 Q 57.25 50.538 64.07 50.538 L 64.07 50.538 L 82.343 50.538 L 82.343 50.538 Q 102.418 50.538 102.418 71.428 L 102.418 71.428 L 102.418 79.687 L 102.418 79.687 Q 102.418 85.882 100.231 90.011 L 100.231 90.011 L 100.231 90.011 Q 98.043 94.141 94.054 96.145 L 94.054 96.145 L 94.054 96.145 Q 90.065 98.149 85.947 98.878 L 85.947 98.878 L 85.947 98.878 Q 81.829 99.606 76.424 99.606 L 76.424 99.606 L 76.424 99.606 Q 71.92 99.606 60.531 98.513 L 60.531 98.513 L 60.531 98.513 Q 49.142 97.42 44.252 96.57 L 44.252 96.57 L 44.252 89.282 L 44.252 89.282 Q 58.408 90.618 76.424 90.618 L 76.424 90.618 L 76.424 90.618 Q 92.896 90.618 92.896 79.687 L 92.896 79.687 L 92.896 71.428 L 92.896 71.428 Q 92.896 65.72 90.579 62.623 L 90.579 62.623 L 90.579 62.623 Q 88.263 59.526 82.343 59.526 L 82.343 59.526 L 64.327 59.526 L 64.327 59.526 Q 56.992 59.526 52.166 57.825 L 52.166 57.825 L 52.166 57.825 Q 47.341 56.125 45.153 52.846 L 45.153 52.846 L 45.153 52.846 Q 42.965 49.566 42.193 46.348 L 42.193 46.348 L 42.193 46.348 Q 41.421 43.129 41.421 38.635 Z " fill="rgb(255,173,0)"/><path d=" M 41.421 116.352 L 41.421 114.554 L 458.579 114.554 L 458.579 118.15 L 41.421 118.15 L 41.421 116.352 Z " fill="rgb(255,255,255)"/><path d=" M 80.684 158.63 L 80.684 158.63 L 80.684 158.63 Q 82.265 159.121 83.564 160.035 L 83.564 160.035 L 83.564 160.035 Q 84.863 160.948 85.776 162.37 L 85.776 162.37 L 85.776 162.37 Q 86.69 163.792 87.181 165.724 L 87.181 165.724 L 87.181 165.724 Q 87.673 167.655 87.673 170.149 L 87.673 170.149 L 87.673 172.677 L 87.673 172.677 Q 87.673 184.899 75.451 184.899 L 75.451 184.899 L 47.883 184.899 L 47.883 134.538 L 74.012 134.538 L 74.012 134.538 Q 86.233 134.538 86.233 146.795 L 86.233 146.795 L 86.233 147.708 L 86.233 147.708 Q 86.233 151.957 84.881 154.644 L 84.881 154.644 L 84.881 154.644 Q 83.529 157.33 80.684 158.63 Z  M 75.241 162.949 L 54.942 162.949 L 54.942 177.84 L 75.241 177.84 L 75.241 177.84 Q 78.085 177.84 79.35 176.505 L 79.35 176.505 L 79.35 176.505 Q 80.614 175.171 80.614 172.326 L 80.614 172.326 L 80.614 168.428 L 80.614 168.428 Q 80.614 165.548 79.35 164.249 L 79.35 164.249 L 79.35 164.249 Q 78.085 162.949 75.241 162.949 L 75.241 162.949 L 75.241 162.949 Z  M 73.801 141.597 L 54.942 141.597 L 54.942 155.926 L 74.293 155.926 L 74.293 155.926 Q 76.891 155.82 78.033 154.503 L 78.033 154.503 L 78.033 154.503 Q 79.174 153.186 79.174 150.447 L 79.174 150.447 L 79.174 147.146 L 79.174 147.146 Q 79.174 144.266 77.91 142.932 L 77.91 142.932 L 77.91 142.932 Q 76.646 141.597 73.801 141.597 L 73.801 141.597 L 73.801 141.597 Z  M 103.849 177.699 L 103.849 134.538 L 111.048 134.538 L 111.048 177.699 L 139.811 177.699 L 139.811 134.538 L 147.01 134.538 L 147.01 177.699 L 147.01 177.699 Q 147.01 179.174 146.448 180.491 L 146.448 180.491 L 146.448 180.491 Q 145.886 181.808 144.903 182.792 L 144.903 182.792 L 144.903 182.792 Q 143.92 183.775 142.603 184.337 L 142.603 184.337 L 142.603 184.337 Q 141.286 184.899 139.811 184.899 L 139.811 184.899 L 111.048 184.899 L 111.048 184.899 Q 109.573 184.899 108.256 184.337 L 108.256 184.337 L 108.256 184.337 Q 106.939 183.775 105.956 182.792 L 105.956 182.792 L 105.956 182.792 Q 104.973 181.808 104.411 180.491 L 104.411 180.491 L 104.411 180.491 Q 103.849 179.174 103.849 177.699 L 103.849 177.699 L 103.849 177.699 Z  M 165.328 134.538 L 172.527 134.538 L 172.527 184.899 L 165.328 184.899 L 165.328 134.538 L 165.328 134.538 Z  M 190.846 134.538 L 198.045 134.538 L 198.045 177.699 L 223.928 177.699 L 223.928 184.899 L 190.846 184.899 L 190.846 134.538 L 190.846 134.538 Z  M 245.161 177.699 L 263.563 177.699 L 263.563 177.699 Q 268.585 177.699 271.289 174.995 L 271.289 174.995 L 271.289 174.995 Q 273.993 172.291 273.993 167.269 L 273.993 167.269 L 273.993 152.168 L 273.993 152.168 Q 273.993 149.71 273.291 147.778 L 273.291 147.778 L 273.291 147.778 Q 272.589 145.846 271.236 144.494 L 271.236 144.494 L 271.236 144.494 Q 269.884 143.142 267.953 142.44 L 267.953 142.44 L 267.953 142.44 Q 266.021 141.738 263.563 141.738 L 263.563 141.738 L 245.161 141.738 L 245.161 177.699 L 245.161 177.699 Z  M 263.563 184.899 L 237.961 184.899 L 237.961 134.538 L 263.563 134.538 L 263.563 134.538 Q 267.602 134.538 270.85 135.785 L 270.85 135.785 L 270.85 135.785 Q 274.099 137.032 276.399 139.332 L 276.399 139.332 L 276.399 139.332 Q 278.699 141.632 279.946 144.898 L 279.946 144.898 L 279.946 144.898 Q 281.193 148.164 281.193 152.168 L 281.193 152.168 L 281.193 167.269 L 281.193 167.269 Q 281.193 171.273 279.946 174.539 L 279.946 174.539 L 279.946 174.539 Q 278.699 177.805 276.399 180.105 L 276.399 180.105 L 276.399 180.105 Q 274.099 182.405 270.85 183.652 L 270.85 183.652 L 270.85 183.652 Q 267.602 184.899 263.563 184.899 L 263.563 184.899 L 263.563 184.899 Z  M 298.106 184.899 L 298.106 134.538 L 334.805 134.538 L 334.805 141.738 L 305.305 141.738 L 305.305 156.136 L 330.486 156.136 L 330.486 163.336 L 305.305 163.336 L 305.305 177.699 L 334.805 177.699 L 334.805 184.899 L 298.106 184.899 L 298.106 184.899 Z  M 390.771 146.795 L 390.771 152.519 L 390.771 152.519 Q 390.771 163.055 381.781 164.53 L 381.781 164.53 L 391.263 184.899 L 383.291 184.899 L 373.949 164.776 L 358.181 164.776 L 358.181 184.899 L 350.981 184.899 L 350.981 134.538 L 378.55 134.538 L 378.55 134.538 Q 390.771 134.538 390.771 146.795 L 390.771 146.795 L 390.771 146.795 Z  M 358.181 141.738 L 358.181 157.576 L 378.163 157.576 L 378.163 157.576 Q 381.043 157.576 382.307 156.312 L 382.307 156.312 L 382.307 156.312 Q 383.572 155.048 383.572 152.168 L 383.572 152.168 L 383.572 147.146 L 383.572 147.146 Q 383.572 144.266 382.307 143.002 L 382.307 143.002 L 382.307 143.002 Q 381.043 141.738 378.163 141.738 L 378.163 141.738 L 358.181 141.738 L 358.181 141.738 Z  M 439.818 163.336 L 415.375 163.336 L 415.375 163.336 Q 413.9 163.336 412.583 162.756 L 412.583 162.756 L 412.583 162.756 Q 411.266 162.177 410.283 161.211 L 410.283 161.211 L 410.283 161.211 Q 409.3 160.245 408.738 158.928 L 408.738 158.928 L 408.738 158.928 Q 408.176 157.611 408.176 156.136 L 408.176 156.136 L 408.176 141.738 L 408.176 141.738 Q 408.176 140.263 408.738 138.946 L 408.738 138.946 L 408.738 138.946 Q 409.3 137.629 410.283 136.663 L 410.283 136.663 L 410.283 136.663 Q 411.266 135.697 412.583 135.118 L 412.583 135.118 L 412.583 135.118 Q 413.9 134.538 415.375 134.538 L 415.375 134.538 L 439.818 134.538 L 439.818 134.538 Q 441.293 134.538 442.61 135.118 L 442.61 135.118 L 442.61 135.118 Q 443.927 135.697 444.911 136.663 L 444.911 136.663 L 444.911 136.663 Q 445.894 137.629 446.456 138.946 L 446.456 138.946 L 446.456 138.946 Q 447.018 140.263 447.018 141.738 L 447.018 141.738 L 447.018 148.235 L 439.818 148.235 L 439.818 141.738 L 415.375 141.738 L 415.375 156.136 L 439.818 156.136 L 439.818 156.136 Q 441.293 156.136 442.61 156.698 L 442.61 156.698 L 442.61 156.698 Q 443.927 157.26 444.911 158.243 L 444.911 158.243 L 444.911 158.243 Q 445.894 159.227 446.456 160.544 L 446.456 160.544 L 446.456 160.544 Q 447.018 161.861 447.018 163.336 L 447.018 163.336 L 447.018 177.699 L 447.018 177.699 Q 447.018 179.174 446.456 180.491 L 446.456 180.491 L 446.456 180.491 Q 445.894 181.808 444.911 182.792 L 444.911 182.792 L 444.911 182.792 Q 443.927 183.775 442.61 184.337 L 442.61 184.337 L 442.61 184.337 Q 441.293 184.899 439.818 184.899 L 439.818 184.899 L 414.673 184.899 L 414.673 184.899 Q 413.198 184.899 411.881 184.337 L 411.881 184.337 L 411.881 184.337 Q 410.564 183.775 409.581 182.792 L 409.581 182.792 L 409.581 182.792 Q 408.597 181.808 408.036 180.491 L 408.036 180.491 L 408.036 180.491 Q 407.474 179.174 407.474 177.699 L 407.474 177.699 L 407.474 171.238 L 414.673 171.238 L 414.673 177.699 L 439.818 177.699 L 439.818 163.336 L 439.818 163.336 Z " fill-rule="evenodd" fill="rgb(255,255,255)"/><path d=" M 421.26 76.934 L 421.26 76.934 L 421.26 76.934 Q 421.26 69.809 422.289 65.477 L 422.289 65.477 L 422.289 65.477 Q 423.319 61.145 426.021 58.918 L 426.021 58.918 L 426.021 58.918 Q 428.724 56.692 432.027 56.004 L 432.027 56.004 L 432.027 56.004 Q 435.329 55.315 441.163 55.315 L 441.163 55.315 L 441.163 55.315 Q 445.882 55.315 448.541 55.72 L 448.541 55.72 L 448.541 55.72 Q 451.201 56.125 453.774 57.582 L 453.774 57.582 L 453.774 57.582 Q 456.348 59.04 457.463 62.198 L 457.463 62.198 L 457.463 62.198 Q 458.579 65.356 458.579 70.538 L 458.579 70.538 L 458.579 70.538 Q 458.579 80.416 446.825 80.416 L 446.825 80.416 L 427.608 80.416 L 427.608 80.416 Q 427.608 87.946 429.41 90.497 L 429.41 90.497 L 429.41 90.497 Q 431.212 93.048 436.273 93.048 L 436.273 93.048 L 436.273 93.048 Q 436.874 93.048 438.075 93.048 L 438.075 93.048 L 438.075 93.048 Q 439.276 93.048 439.876 93.048 L 439.876 93.048 L 439.876 93.048 Q 451.887 93.048 457.721 92.238 L 457.721 92.238 L 457.721 96.772 L 457.721 96.772 Q 449.228 99.039 436.273 99.039 L 436.273 99.039 L 436.273 99.039 Q 427.608 99.039 424.434 94.343 L 424.434 94.343 L 424.434 94.343 Q 421.26 89.647 421.26 76.934 Z  M 427.608 74.505 L 427.608 74.505 L 446.825 74.505 L 446.825 74.505 Q 452.23 74.505 452.23 70.538 L 452.23 70.538 L 452.23 70.538 Q 452.23 64.303 450.3 62.805 L 450.3 62.805 L 450.3 62.805 Q 448.37 61.307 441.249 61.307 L 441.249 61.307 L 441.249 61.307 Q 438.246 61.307 436.831 61.388 L 436.831 61.388 L 436.831 61.388 Q 435.415 61.469 433.485 61.833 L 433.485 61.833 L 433.485 61.833 L 430.74 63.007 L 430.74 63.007 Q 429.925 63.817 429.024 65.275 L 429.024 65.275 L 429.024 65.275 Q 428.123 66.732 427.866 68.999 L 427.866 68.999 L 427.866 68.999 Q 427.608 71.266 427.608 74.505 Z " fill-rule="evenodd" fill="rgb(255,255,255)"/></g></g></svg>
